X:1
T:Back Home (Fady & Mina vs Omar Sherif Remix)
T:Back Home (Fadi & Mina vs Omar Sherif Remix) 
T:Hazem Beltagui feat. Adara
C:Hazem Beltagui feat. Adara
%%score { ( 1 4 ) | ( 2 3 ) }
L:1/8
Q:1/4=140
M:4/4
K:E
V:1 treble nm="Piano" snm="Pno."
V:4 treble 
V:2 bass 
V:3 bass 
V:1
!mp! z4 (e f3- | f3 e- e2 B2) | z4 (e f3- | f3 e- e2 d2- | d6 c2-) | c8 | z8 | z8 | z2 (BB e f3- | %9
 f3 e- e2 B2) | z3 (B e f3- | f3 e- e2 d2- | d6 c2- | c) B7 | z8 | z8 | z8 | (b3 a3 g2- | %18
 g2 f4) z (e | a b2 a3 g2- | g6 fe- | e2 c6) | z7 (e | b a2 g2 f2 f-) | f6 (cc | b a2 g2 f2 f-) | %26
 f7 (c | b a2 g2 f3 | f6 ef- | f4 g2 a2- | a8- | a4- a g3- |!mf! g4) z3 (e | gf f2 f3) (e | %34
 ef f4 eg | d3 e/d/ c4) | z7 (e | g f2 f2 e2) (e | ef f3 e g2 | d3 c3 e2) | z7 (c | b a2 a g3 g | %42
 ga a4 ga-) | a8 |!<(! z6 (cb | b a2 a3 ga-) | a8!<)! |!f! (b3 c'2 gfg- | g8- | g8) | z8 | %51
 (b3 c'2 gff- | f8- | f6 fe- | e8) | (b3 c'2 gff- | f6 ec- | c8) | z6 (ed | e d2 e- e2 df- | %60
!>(! f8- | f8) | z8 | z8!>)! ||!mp! (b2 b a2 a g2 | g e2 e f2) (fe | b2 b a2 a g2 | %67
 g e2 e f2) (fe | b2 b a2 a g2 | g e2 e f2) (fe | b2 b a2 a g2 | g e2 e f2) (fe | a2 a g2 g a2 | %73
 a c2 c a2) (ag | a2 a g2 g a2 | a c2 c a2) (ae | f2 f e2 e f2 | f B2 B f2) (fe | f2 f e2 e f2 | %79
 f B2 B f2) ([Ff][Ee] | [Bb]2 [Bb] [Aa]2 [Aa] [Gg]2 | [Gg] [Ee]2 [Ee] [Ff]2) ([Ff][Ee] | %82
 [Bb]2 [Bb] [Aa]2 [Aa] [Gg]2 | [Gg] [Ee]2 [Ee] [Ff]2) ([Ff][Ee] | [Bb]2 [Bb] [Aa]2 [Aa] [Gg]2 | %85
 [Gg] [Ee]2 [Ee] [Ff]2) ([Ff][Ee] | [cc']2 [cc'] [Gg]2 [Gg] [Ff]2 | %87
 [Ff] [Ee]2 [Ee] [Ff]2) ([Ff][Ee] | [Bb]2 [Bb] [Aa]2 [Aa] [Gg]2 | %89
 [Gg] [Ee]2 [Ee] [Ff]2) ([Ff][Ee] | [Bb]2 [Bb] [Aa]2 [Aa] [Gg]2 | %91
 [Gg] [Ee]2 [Ee] [Ff]2) ([Ff][Ee] |!<(! [Bb]2 [Bb] [Aa]2 [Aa] [Gg]2 | %93
 [Gg] [Ee]2 [Ee] [Ff]2) ([Ff][Ee] | [Bb]2 [Bb] [Aa]2 [Aa] [Gg]2 | %95
 [Gg] [Ee]2 [Ee] [Ff]2)!f! ([Ff][Ee]!<)! || [Bb]2 [Bb] [Aa]2 [Aa] [Gg]2 | %97
 [Gg] [Ee]2 [Ee] [Ff]2) ([Ff][Ee] | [Bb]2 [Bb] [Aa]2 [Aa] [Gg]2 | %99
 [Gg] [Ee]2 [Ee] [Ff]2) ([Ff][Ee] | [Bb]2 [Bb] [Aa]2 [Aa] [Gg]2 | %101
 [Gg] [Ee]2 [Ee] [Ff]2) ([Ff][Ee] | [Bb]2 [Bb] [Aa]2 [Aa] [Gg]2 | %103
 [Gg] [Ee]2 [Ee] [Ff]2) ([Ff][Ee] | [Aa]2 [Aa] [Gg]2 [Gg] [Aa]2 | %105
 [Aa] [Cc]2 [Cc] [Aa]2) ([Aa][Gg] | [Aa]2 [Aa] [Gg]2 [Gg] [Aa]2 | %107
 [Aa] [Cc]2 [Cc] [Aa]2) ([Aa][Ee] | [Ff]2 [Ff] [Ee]2 [Ee] [Ff]2 | %109
 [Ff] [B,B]2 [B,B] [Ff]2) ([Ff][Ee] | [Ff]2 [Ff] [Ee]2 [Ee] [Ff]2 | %111
 [Ff] [B,B]2 [B,B] [Ff]2) ([Ff][Ee] |!f! [Bb]2 [Bb] [Aa]2 [Aa] [Gg]2 | %113
 [Gg] [Ee]2 [Ee] [Ff]2) ([Ff][Ee] | [Bb]2 [Bb] [Aa]2 [Aa] [Gg]2 | %115
 [Gg] [Ee]2 [Ee] [Ff]2) ([Ff][Ee] | [Bb]2 [Bb] [Aa]2 [Aa] [Gg]2 | %117
 [Gg] [Ee]2 [Ee] [Ff]2) ([Ff][Ee] | [cc']2 [cc'] [Gg]2 [Gg] [Ff]2 | %119
 [Ff] [Ee]2 [Ee] [Ff]2) [Ff]([Ee] | [Aa]2 [Aa] [Gg]2 [Gg] [Aa]2 | %121
 [Aa] [Cc]2 [Cc] [Aa]2) ([Aa][Gg] | [Aa]2 [Aa] [Gg]2 [Gg] [Aa]2 | %123
 [Aa] [Cc]2 [Cc] [Aa]2) ([Aa][Ee] |!>(! [Ff]2 [Ff] [Ee]2 [Ee] [Ff]2 | %125
 [Ff] [B,B]2 [B,B] [Ff]2) ([Ff][Ee] | [Ff]2 [Ff] [Ee]2 [Ee]!>)!!mp! [Ff]2) | %127
!f! ([Bb]3 [cc']2 [Gg][Ff][Gg]- | [Gg]8- | [Gg]8) | b2 b a2 a g2 | ([Bb]3 [cc']2 [Gg][Ff][Gg]- | %132
 [Gg]8- | [Gg]6) [Ff][Ee]- | [Ee]8 | ([Bb]3 [cc']2 [Gg][Ff][Ff]- | [Ff]6 [Ee][Cc]- | [Cc]8) | %138
 a2 a g3 ([Ee][Dd] | [Ee] [Dd]2 [Ee]- [Ee]2 [Dd][Ff]- |!>(! [Ff]8- | [Ff]8) | %142
 [B,D]2 [B,D]2 [B,D]2 [B,D]2 | [B,E]2 [B,E]2 [B,F]2 [B,F]2!>)! |!p! [B,E]8- | [B,E]8 | z8 |] %147
V:2
!ped! E,,-B,,-E,-G,- [E,,B,,E,G,]4- | [E,,B,,E,G,]8!ped-up! |!ped! E,,-B,,-E,-G,- [E,,B,,E,G,]4- | %3
 [E,,B,,E,G,]8!ped-up! |!ped! C,,-G,,-C,-E,- [C,,G,,C,E,]4- | [C,,G,,C,E,]8!ped-up! | %6
!ped! C,,-G,,-C,-D,- [C,,G,,C,D,]4- | [C,,G,,C,D,]8!ped-up! |!ped! E,,-B,,-E,-F,- [E,,B,,E,F,]4- | %9
 [E,,B,,E,F,]8!ped-up! |!ped! E,,-B,,-E,-G,- [E,,B,,E,G,]4- | [E,,B,,E,G,]8!ped-up! | %12
!ped! C,,-G,,-C,-E,- [C,,G,,C,E,]4- | [C,,G,,C,E,]8!ped-up! |!ped! C,,-G,,-C,-D,- [C,,G,,C,D,]4- | %15
 [C,,G,,C,D,]8!ped-up! |!ped! E,,-B,,-E,-G,- [E,,B,,E,G,]4- | [E,,B,,E,G,]8!ped-up! | %18
!ped! E,,-B,,-E,-G,- [E,,B,,E,G,]4- | [E,,B,,E,G,]8!ped-up! |!ped! C,,-G,,-C,-E,- [C,,G,,C,E,]4- | %21
 [C,,G,,C,E,]8!ped-up! |!ped! C,,-G,,-C,-E,- [C,,G,,C,E,]4- | [C,,G,,C,E,]8!ped-up! | %24
!ped! F,,-C,-E,-A,- [F,,C,E,A,]4- | [F,,C,E,A,]8!ped-up! |!ped! F,,-C,-E,-A,- [F,,C,E,A,]4- | %27
 [F,,C,E,A,]8!ped-up! |!ped! B,,,-F,,-B,,-F,- [B,,,F,,B,,F,]4- | [B,,,F,,B,,F,]8!ped-up! | %30
!ped! B,,,-F,,-B,,-F,- [B,,,F,,B,,F,]4- | [B,,,F,,B,,F,]8!ped-up! |!ped! [E,,E,]8- | %33
 [E,,E,]8!ped-up! |!ped! [E,,E,]8- | [E,,E,]8!ped-up! |!ped! [C,,C,]8- | [C,,C,]8!ped-up! | %38
!ped! [C,,C,]8- | [C,,C,]8!ped-up! |!ped! [F,,F,]8- | [F,,F,]8!ped-up! |!ped! [F,,F,]8- | %43
 [F,,F,]8!ped-up! |!ped! [B,,,B,,]8- | [B,,,B,,]8!ped-up! |!ped! [B,,,B,,]8- | [B,,,B,,]8!ped-up! | %48
!ped! [E,,B,,]E,G, [B,F]2 [B,F] [B,F]2 | [B,F] [B,F]2 [B,F] [B,F]2 [B,F]2!ped-up! | %50
!ped! [E,,B,,]E,G, [B,G]2 [B,G] [B,G]2 | [B,G] [B,G]2 [B,G] [B,G]2 [B,G]2!ped-up! | %52
!ped! [C,,G,,]C,E, [G,E]2 [G,E] [G,E]2 | [G,E] [G,E]2 [G,E] [G,E]2 [G,E]2!ped-up! | %54
!ped! [C,,G,,]C,E, [G,D]2 [G,D] [G,D]2 | [G,D] [G,D]2 [G,D] [G,D]2 [G,D]2!ped-up! | %56
!ped! [F,,C,]F,A, [CE]2 [CE] [CE]2 | [CE] [CE]2 [CE] [CE]2 [CE]2!ped-up! | %58
!ped! [F,,C,]F,A, [CD]2 [CD] [CD]2 | [CD] [CD]2 [CD] [CD]2 [CD]2!ped-up! | %60
!ped! B,,,F,,B,, [D,F,]2 [D,F,] [D,F,]2 | [D,F,] [D,F,]2 [D,F,] [D,F,]2 [D,F,]2!ped-up! | %62
!ped! B,,,F,,B,, [B,,D,]2 [B,,D,] [B,,D,]2 | [B,,E,] [B,,E,]2 [B,,E,] [B,,F,]2 [B,,F,]2!ped-up! || %64
 [E,,E,]8- | [E,,E,]8 | [E,,E,]8- | [E,,E,]8 | [C,,C,]8- | [C,,C,]8 | [C,,C,]8- | [C,,C,]8 | %72
 [F,,F,]8- | [F,,F,]8 | [F,,F,]8- | [F,,F,]8 | [B,,,B,,]8- | [B,,,B,,]8 | [B,,,B,,]8- | %79
 [B,,,B,,]8 |!ped! z2 [B,F] [B,F]2 [B,F] [B,F]2 | [B,F] [B,F]2 [B,F] [B,F]2 [B,F]2!ped-up! | %82
!ped! z2 [B,G] [B,G]2 [B,G] [B,G]2 | [B,G] [B,G]2 [B,G] [B,G]2 [B,G]2!ped-up! | %84
!ped! z2 [G,E] [G,E]2 [G,E] [G,E]2 | [G,E] [G,E]2 [G,E] [G,E]2 [G,E]2!ped-up! | %86
!ped! z2 [G,D] [G,D]2 [G,D] [G,D]2 | [G,D] [G,D]2 [G,D] [G,D]2 [G,D]2!ped-up! | %88
!ped! [E,,E,]2 [B,,G,]2 [E,,E,]2 [B,,G,]2 | [E,,E,]2 [B,,G,]2 [E,,E,]2 [B,,G,]2!ped-up! | %90
!ped! [E,,E,]2 [B,,G,]2 [E,,E,]2 [B,,G,]2 | [E,,E,]2 [B,,G,]2 [E,,E,]2 [B,,G,]2!ped-up! | %92
!ped! [B,,,B,,][B,,,B,,][B,,,B,,][B,,,B,,] [B,,,B,,][B,,,B,,][B,,,B,,][B,,,B,,] | %93
 [B,,,B,,][B,,,B,,][B,,,B,,][B,,,B,,] [B,,,B,,][B,,,B,,][B,,,B,,][B,,,B,,]!ped-up! | %94
!ped! !//![B,,,B,,]8!ped-up! | z4 !~(!B,,,2 !~)!F,2 || %96
!ped! E,,[B,,F,]E,,[B,,F,] E,,[B,,F,]E,,[B,,F,] | %97
 E,,[B,,F,]E,,[B,,F,] E,,[B,,F,]E,,[B,,F,]!ped-up! | %98
!ped! E,,[G,,E,]E,,[G,,E,] E,,[G,,E,]E,,[G,,E,] | %99
 E,,[G,,E,]E,,[G,,E,] E,,[G,,E,]E,,[G,,E,]!ped-up! | %100
!ped! C,,[G,,E,]C,,[G,,E,] C,,[G,,E,]C,,[G,,E,] | %101
 C,,[G,,E,]C,,[G,,E,] C,,[G,,E,]C,,[G,,E,]!ped-up! | %102
!ped! C,,[G,,D,]C,,[G,,D,] C,,[G,,D,]C,,[G,,D,] | %103
 C,,[G,,D,]C,,[G,,D,] C,,[G,,D,]C,,[G,,D,]!ped-up! | %104
!ped! F,,[A,,E,]F,,[A,,E,] F,,[A,,E,]F,,[A,,E,] | %105
 F,,[A,,E,]F,,[A,,E,] F,,[A,,E,]F,,[A,,E,]!ped-up! | %106
!ped! F,,[A,,D,]F,,[A,,D,] F,,[A,,D,]F,,[A,,D,] | %107
 F,,[A,,D,]F,,[A,,D,] F,,[A,,D,]F,,[A,,D,]!ped-up! | %108
!ped! B,,,[F,,B,,]B,,,[F,,B,,] B,,,[F,,B,,]B,,,[F,,B,,] | %109
 B,,,[F,,B,,]B,,,[F,,B,,] B,,,[F,,B,,]B,,,[F,,B,,]!ped-up! | %110
!ped! B,,,[D,,B,,]B,,,[D,,B,,] B,,,[D,,B,,]B,,,[D,,B,,]!ped-up! | %111
!ped! B,,,[E,,B,,]B,,,[E,,B,,]!ped-up!!ped! B,,,[F,,B,,]B,,,[F,,B,,]!ped-up! | %112
!ped! E,,[B,,F,]E,,[B,,F,] E,,[B,,F,]E,,[B,,F,] | %113
 E,,[B,,F,]E,,[B,,F,] E,,[B,,F,]E,,[B,,F,]!ped-up! | %114
!ped! E,,[G,,E,]E,,[G,,E,] E,,[G,,E,]E,,[G,,E,] | %115
 E,,[G,,E,]E,,[G,,E,] E,,[G,,E,]E,,[G,,E,]!ped-up! | %116
!ped! C,,[G,,E,]C,,[G,,E,] C,,[G,,E,]C,,[G,,E,] | %117
 C,,[G,,E,]C,,[G,,E,] C,,[G,,E,]C,,[G,,E,]!ped-up! | %118
!ped! C,,[G,,D,]C,,[G,,D,] C,,[G,,D,]C,,[G,,D,] | %119
 C,,[G,,D,]C,,[G,,D,] C,,[G,,D,]C,,[G,,D,]!ped-up! | %120
!ped! F,,[A,,E,]F,,[A,,E,] F,,[A,,E,]F,,[A,,E,] | %121
 F,,[A,,E,]F,,[A,,E,] F,,[A,,E,]F,,[A,,E,]!ped-up! | %122
!ped! F,,[A,,D,]F,,[A,,D,] F,,[A,,D,]F,,[A,,D,] | %123
 F,,[A,,D,]F,,[A,,D,] F,,[A,,D,]F,,[A,,D,]!ped-up! | %124
!ped! B,,,[F,,B,,]B,,,[F,,B,,] B,,,[F,,B,,]B,,,[F,,B,,] | %125
 B,,,[F,,B,,]B,,,[F,,B,,] B,,,[F,,B,,]B,,,[F,,B,,]!ped-up! | %126
!ped! B,,,[D,,B,,]B,,,[D,,B,,] B,,,[D,,B,,]B,,,[D,,B,,]!ped-up! | %127
!ped! B,,,[E,,B,,]B,,,[E,,B,,]!ped-up!!ped! B,,,[F,,B,,]B,,,[F,,B,,]!ped-up! | %128
!ped! E,,[B,,F,]E,,[B,,F,] E,,[B,,F,]E,,[B,,F,] | %129
 E,,[B,,F,]E,,[B,,F,] E,,[B,,F,]E,,[B,,F,]!ped-up! | %130
!ped! E,,[G,,E,]E,,[G,,E,] E,,[G,,E,]E,,[G,,E,] | %131
 E,,[G,,E,]E,,[G,,E,] E,,[G,,E,]E,,[G,,E,]!ped-up! | %132
!ped! C,,[G,,E,]C,,[G,,E,] C,,[G,,E,]C,,[G,,E,] | %133
 C,,[G,,E,]C,,[G,,E,] C,,[G,,E,]C,,[G,,E,]!ped-up! | %134
!ped! C,,[G,,D,]C,,[G,,D,] C,,[G,,D,]C,,[G,,D,] | %135
 C,,[G,,D,]C,,[G,,D,] C,,[G,,D,]C,,[G,,D,]!ped-up! | %136
!ped! F,,[A,,E,]F,,[A,,E,] F,,[A,,E,]F,,[A,,E,] | %137
 F,,[A,,E,]F,,[A,,E,] F,,[A,,E,]F,,[A,,E,]!ped-up! | %138
!ped! F,,[A,,D,]F,,[A,,D,] F,,[A,,D,]F,,[A,,D,] | %139
 F,,[A,,D,]F,,[A,,D,] F,,[A,,D,]F,,[A,,D,]!ped-up! | %140
!ped! B,,,[F,,B,,]B,,,[F,,B,,] B,,,[F,,B,,]B,,,[F,,B,,] | %141
 B,,,[F,,B,,]B,,,[F,,B,,] B,,,[F,,B,,]B,,,[F,,B,,]!ped-up! | %142
!ped! B,,,B,,B,,,B,, B,,,B,,B,,,B,,!ped-up! |!ped! B,,,B,,B,,,B,, B,,,B,,B,,,B,,!ped-up! | %144
!ped! [E,,G,,]8- | [E,,G,,]8!ped-up! | z8 |] %147
V:3
 x8 | [B,EG]2 [B,EG][B,EG]- [B,EG]4 | x8 | [B,EG]2 [B,EG][B,EG]- [B,EG]4 | x8 | %5
 [G,CE]2 [G,CE][G,CE]- [G,CE]4 | x8 | [G,CD]2 [G,CD][G,CD]- [G,CD]4 | x8 | %9
 [B,EF]2 [B,EF][B,EF]- [B,EF]4 | x8 | [B,EG]2 [B,EG][B,EG]- [B,EG]4 | x8 | %13
 [G,CE]2 [G,CE][G,CE]- [G,CE]4 | x8 | [G,CD]2 [G,CD][G,CD]- [G,CD]4 | x8 | %17
 [B,EG]2 [B,EG][B,EG]- [B,EG]4 | x8 | [B,EG]2 [B,EG][B,EG]- [B,EG]4 | x8 | %21
 [G,CE]2 [G,CE][G,CE]- [G,CE]4 | x8 | [G,CE]2 [G,CE][G,CE]- [G,CE]4 | x8 | %25
 [CFA]2 [CFA][CFA]- [CFA]4 | x8 | [CFA]2 [CFA][CFA]- [CFA]4 | x8 | %29
 [F,B,D]2 [F,B,D][F,B,D]- [F,B,D]4 | x8 | [F,B,D]2 [F,B,D][F,B,D]- [F,B,D]4 | %32
 z2 [F,B,] [F,B,]2 [F,B,] [F,B,]2 | [F,B,] [F,B,]2 [F,B,] [F,B,]2 [F,B,]2 | %34
 z2 [G,B,] [G,B,]2 [G,B,] [G,B,]2 | [G,B,] [G,B,]2 [G,B,] [G,B,]2 [G,B,]2 | %36
 z2 [E,G,] [E,G,]2 [E,G,] [E,G,]2 | [E,G,] [E,G,]2 [E,G,] [E,G,]2 [E,G,]2 | %38
 z2 [D,G,] [D,G,]2 [D,G,] [D,G,]2 | [D,G,] [D,G,]2 [D,G,] [D,G,]2 [D,G,]2 | %40
 z2 [A,E] [A,E]2 [A,E] [A,E]2 | [A,E] [A,E]2 [A,E] [A,E]2 [A,E]2 | z2 [A,D] [A,D]2 [A,D] [A,D]2 | %43
 [A,D] [A,D]2 [A,D] [A,D]2 [A,D]2 | z2 [DF] [DF]2 [DF] [DF]2 | [DF] [DF]2 [DF] [DF]2 [DF]2 | %46
 z2 [B,D] [B,D]2 [B,D] [B,D]2 | [B,E] [B,E]2 [B,E] [B,F]2 [B,F]2 | x8 | x8 | x8 | x8 | x8 | x8 | %54
 x8 | x8 | x8 | x8 | x8 | x8 | x8 | x8 | x8 | x8 || x8 | x8 | x8 | x8 | x8 | x8 | x8 | x8 | x8 | %73
 x8 | x8 | x8 | x8 | x8 | x8 | x8 | [E,,E,]8- | [E,,E,]8 | [E,,E,]8- | [E,,E,]8 | [C,,C,]8- | %85
 [C,,C,]8 | [C,,C,]8- | [C,,C,]8 | x8 | x8 | x8 | x8 | x8 | x8 | x8 | x8 || x8 | x8 | x8 | x8 | %100
 x8 | x8 | x8 | x8 | x8 | x8 | x8 | x8 | x8 | x8 | x8 | x8 | x8 | x8 | x8 | x8 | x8 | x8 | x8 | %119
 x8 | x8 | x8 | x8 | x8 | x8 | x8 | x8 | x8 | x8 | x8 | x8 | x8 | x8 | x8 | x8 | x8 | x8 | x8 | %138
 x8 | x8 | x8 | x8 | x8 | x8 | x8 | x8 | x8 |] %147
V:4
 x8 | x8 | x8 | x8 | x8 | x8 | x8 | x8 | x8 | x8 | x8 | x8 | x8 | x8 | x8 | x8 | x8 | x8 | x8 | %19
 x8 | x8 | x8 | x8 | x8 | x8 | x8 | x8 | x8 | x8 | x8 | x8 | x8 | x8 | x8 | x8 | x8 | x8 | x8 | %38
 x8 | x8 | x8 | x8 | x8 | x8 | x8 | x8 | x8 | x8 | x8 | x8 | x8 | x8 | x8 | x8 | x8 | x8 | x8 | %57
 x8 | x8 | x8 | x8 | x8 | x8 | x8 || x8 | x8 | x8 | x8 | x8 | x8 | x8 | x8 | x8 | x8 | x8 | x8 | %76
 x8 | x8 | x8 | x8 | x8 | x8 | x8 | x8 | x8 | x8 | x8 | x8 | x8 | x8 | x8 | x8 | x8 | x8 | x8 | %95
 x8 || x8 | x8 | x8 | x8 | x8 | x8 | x8 | x8 | x8 | x8 | x8 | x8 | x8 | x8 | x8 | x8 | x8 | x8 | %114
 x8 | x8 | x8 | x8 | x8 | x8 | x8 | x8 | x8 | x8 | x8 | x8 | x8 | x8 | (b2 b a2 a g2 | %129
 g e2 e f2) fe | x8 | x8 | (b2 b a2 a g2 | g e2 e f4) | (b2 b a2 a g2) | x8 | (a2 a g2 g x2 | %137
 a c2 c a2) ag | x8 | x8 | x8 | x8 | x8 | x8 | x8 | x8 | x8 |] %147

